icons/tasklist-16.svg

<svg xmlns="http://www.w3.org/2000/svg" width="16" height="16" viewBox="0 0 16 16"><path d="M2 2h4a1 1 0 011 1v4a1 1 0 01-1 1H2a1 1 0 01-1-1V3a1 1 0 011-1zm4.655 8.595a.75.75 0 010 1.06L4.03 14.28a.75.75 0 01-1.06 0l-1.5-1.5a.749.749 0 01.326-1.275.749.749 0 01.734.215l.97.97 2.095-2.095a.75.75 0 011.06 0zM9.75 2.5h5.5a.75.75 0 010 1.5h-5.5a.75.75 0 010-1.5zm0 5h5.5a.75.75 0 010 1.5h-5.5a.75.75 0 010-1.5zm0 5h5.5a.75.75 0 010 1.5h-5.5a.75.75 0 010-1.5zm-7.25-9v3h3v-3z"/></svg>

<svg xmlns="http://www.w3.org/2000/svg" width="16" height="16" viewBox="0 0 16 16">
  <defs/>
  <path d="M2,2 L6,2 C6.552,2 7,2.448 7,3 L7,7 C7,7.552 6.552,8 6,8 L2,8 C1.448,8 1,7.552 1,7 L1,3 C1,2.448 1.448,2 2,2 Z M6.655,10.595 C6.947,10.888 6.947,11.362 6.655,11.655 L4.03,14.28 C3.737,14.572 3.263,14.572 2.97,14.28 L1.47,12.78 C1.269,12.593 1.187,12.311 1.255,12.046 C1.322,11.78 1.53,11.572 1.796,11.505 C2.061,11.437 2.343,11.519 2.53,11.72 L3.5,12.69 L5.595,10.595 C5.888,10.303 6.362,10.303 6.655,10.595 Z M9.75,2.5 L15.25,2.5 C15.664,2.5 16,2.836 16,3.25 C16,3.664 15.664,4 15.25,4 L9.75,4 C9.336,4 9,3.664 9,3.25 C9,2.836 9.336,2.5 9.75,2.5 Z M9.75,7.5 L15.25,7.5 C15.664,7.5 16,7.836 16,8.25 C16,8.664 15.664,9 15.25,9 L9.75,9 C9.336,9 9,8.664 9,8.25 C9,7.836 9.336,7.5 9.75,7.5 Z M9.75,12.5 L15.25,12.5 C15.664,12.5 16,12.836 16,13.25 C16,13.664 15.664,14 15.25,14 L9.75,14 C9.336,14 9,13.664 9,13.25 C9,12.836 9.336,12.5 9.75,12.5 Z M2.5,3.5 L2.5,6.5 L5.5,6.5 L5.5,3.5 Z"/>
</svg>
